assets/sonr-icons/wallet.svg

<svg xmlns="http://www.w3.org/2000/svg" width="24" height="24" fill="none" viewBox="0 0 24 24"><path fill="#000" d="M16.32 12.96C15.5248 12.96 14.88 13.6048 14.88 14.4C14.88 15.1952 15.5248 15.84 16.32 15.84C17.1152 15.84 17.76 15.1952 17.76 14.4C17.76 13.6048 17.1152 12.96 16.32 12.96Z"/><path fill="#000" fill-rule="evenodd" d="M15.2025 2.0077C14.8127 1.94118 14.4608 2.03531 14.1914 2.13094C13.9297 2.22382 13.6214 2.36631 13.2868 2.52095L4.74238 6.46406L4.63948 6.51137C4.09872 6.75971 3.62748 6.97612 3.26693 7.32755L3.26476 7.32967C2.95319 7.63528 2.71282 8.0087 2.56533 8.4238C2.39738 8.89629 2.39808 9.4134 2.39888 10.0014L2.39899 14.879C2.39899 14.8938 2.39933 14.9086 2.39999 14.9232L2.39999 17.6049C2.39998 18.1109 2.39996 18.5475 2.4293 18.9071C2.46025 19.2866 2.529 19.6648 2.71369 20.028C2.98971 20.5695 3.4313 21.0107 3.97285 21.2867C4.33592 21.4714 4.71299 21.5397 5.09253 21.5707C5.45203 21.6 5.88855 21.6 6.39493 21.6H17.605C18.1109 21.6 18.5475 21.6 18.907 21.5707C19.2865 21.5398 19.6647 21.471 20.0279 21.2863C20.5695 21.0103 21.0107 20.5687 21.2867 20.0272C21.4713 19.6641 21.5397 19.287 21.5707 18.9075C21.6 18.548 21.6 18.1115 21.6 17.6051V11.195C21.6 10.6891 21.6 10.2526 21.5707 9.89296C21.5397 9.51348 21.471 9.13527 21.2863 8.77207C21.0103 8.23053 20.5687 7.78933 20.0271 7.5133C19.6641 7.32867 19.287 7.2603 18.9075 7.22932C18.5479 7.19999 18.1114 7.2 17.605 7.20002L16.8 7.20002L16.8 4.76214C16.8 4.39666 16.8001 4.05954 16.775 3.78499C16.7491 3.5009 16.6871 3.14086 16.4633 2.81446C16.1696 2.3869 15.7148 2.09576 15.2036 2.00789L15.2025 2.0077ZM2.56533 8.4238L4.74238 6.46406L14.1914 2.13094L2.56533 8.4238ZM4.34294 10.0487C4.36417 9.78859 4.40018 9.69151 4.42455 9.64348C4.51648 9.46336 4.66345 9.31642 4.84358 9.22451C4.89154 9.2002 4.98883 9.16419 5.24905 9.14297C5.52121 9.12076 5.87869 9.12002 6.43199 9.12002H17.568C18.1218 9.12002 18.4793 9.12076 18.7513 9.14296C19.011 9.16416 19.1082 9.2001 19.1563 9.22447C19.3365 9.31636 19.4834 9.46329 19.5754 9.6434C19.5997 9.69128 19.6358 9.78848 19.657 10.0491C19.6792 10.3212 19.68 10.6787 19.68 11.232V17.568C19.68 18.1219 19.6792 18.4793 19.657 18.7513C19.6358 19.0116 19.5998 19.1086 19.5754 19.1566C19.4835 19.3367 19.3365 19.4836 19.1565 19.5755C19.1085 19.5998 19.0113 19.6358 18.7509 19.6571C18.4788 19.6793 18.1213 19.68 17.568 19.68H6.43199C5.87816 19.68 5.52072 19.6793 5.2487 19.6571C4.98851 19.6358 4.89146 19.5998 4.84343 19.5755C4.66337 19.4835 4.51646 19.3366 4.42455 19.1566C4.40024 19.1086 4.36419 19.0114 4.34294 18.751C4.32074 18.4788 4.31999 18.1213 4.31999 17.568V11.232C4.31999 10.6782 4.32074 10.3207 4.34294 10.0487ZM14.0623 4.27768L7.72977 7.20002H14.88V4.80102C14.88 4.38346 14.879 4.13579 14.863 3.95929L14.8602 3.93117L14.8336 3.94035C14.667 3.99949 14.4413 4.10254 14.0623 4.27768Z" clip-rule="evenodd"/></svg>

<svg xmlns="http://www.w3.org/2000/svg" width="24" height="24" fill="none"><path fill="currentColor" d="M16.32 12.96a1.44 1.44 0 1 0 0 2.88 1.44 1.44 0 0 0 0-2.88"/><path fill="currentColor" fill-rule="evenodd" d="M15.203 2.008c-.39-.067-.742.027-1.012.123-.261.093-.57.235-.904.39L4.742 6.464l-.103.047c-.54.249-1.012.465-1.372.817l-.002.002a2.9 2.9 0 0 0-.7 1.094c-.168.472-.167.99-.166 1.577v4.878l.001.044v2.682c0 .506 0 .942.03 1.302.03.38.099.758.284 1.121.276.542.717.983 1.259 1.259.363.184.74.253 1.12.284.359.029.796.029 1.302.029h11.21c.506 0 .942 0 1.302-.03.38-.03.758-.099 1.12-.284a2.9 2.9 0 0 0 1.26-1.259c.184-.363.253-.74.284-1.12.029-.359.029-.796.029-1.302v-6.41c0-.506 0-.942-.03-1.302-.03-.38-.099-.758-.284-1.12a2.9 2.9 0 0 0-1.259-1.26c-.363-.184-.74-.253-1.12-.284-.36-.029-.796-.029-1.302-.029H16.8V4.762c0-.365 0-.702-.025-.977-.026-.284-.088-.644-.312-.97a1.93 1.93 0 0 0-1.26-.807M2.565 8.424l2.177-1.96 9.45-4.333zm1.778 1.625c.021-.26.057-.357.082-.406a.96.96 0 0 1 .419-.418c.048-.025.145-.06.405-.082.272-.022.63-.023 1.183-.023h11.136c.554 0 .911 0 1.183.023.26.021.357.057.405.081.18.092.327.24.42.42.024.047.06.144.081.405.022.272.023.63.023 1.183v6.336c0 .554 0 .911-.023 1.183-.021.26-.057.358-.082.406a.96.96 0 0 1-.418.419c-.049.024-.146.06-.406.081-.272.022-.63.023-1.183.023H6.432c-.554 0-.911 0-1.183-.023-.26-.021-.358-.057-.406-.081a.96.96 0 0 1-.418-.42c-.025-.047-.06-.145-.082-.405a16 16 0 0 1-.023-1.183v-6.336c0-.554 0-.911.023-1.183m9.72-5.771L7.73 7.2h7.15V4.801c0-.418-.001-.665-.017-.842l-.003-.028-.026.01c-.167.058-.393.162-.772.337" clip-rule="evenodd"/></svg>
